X: 2019
T: Paspe.
%R: passepied, waltz
B: Henry Playford "Apollo's Banquet", London 1687 (5th Edition)
F: https://archive.org/details/apollosbanquetco01rugg
Z: 2017 John Chambers <jc:trillian.mit.edu>
M: 3/4
L: 1/8
K: C
% - - - - - - - - - -
|:\
g2 g2 g2 | d2 d2 d2 | e2 fe de | c2 e2 e2 |\
e2 fe de | c2 cd ec | f2 fg fe | d6 :|
|:\
d2 d2 e2 | c2 f2 f2 | d2 c2 d2 | G4 G2 |\
dc de d2 | d2 cd ef | ga gf ed | c6 |]
% - - - - - - - - - -

%%sep 1 1 500
%%sep 1 1 500

